X:28
T:Severn Tunnel Junction
T:Railway Man
T:This Old Man + Gloucester Hornpipe
M:4/4
L:1/8
C:Note: A music played 3 times
S:This Old Man, Gloucester Hornpipe
N:Railway man, he works hard
N:Shunting on the Bristol Yard
N:'Cos the Severn Tunnel never fails -
N:Keeps the engine on the rails
Z:Brian Martin
K:G
d2Bcd3e|dcBcd4|e3dc2B2|A2B2c2Bc|
d2G2GAG2|GABcd4|d2AAA2c2|1"1&2"B2A2G4:|2"3"B2A2G2|]
GF|G2gfg2d2|cBcd efge|dBGB edcB|A2A2AcBA|
G2gfg2d2|cBcd efge|dBGB ecAF|G2G2G4|]

